dist/img/sprites/arrowRight.svg

<svg width="18" height="15" viewBox="0 0 18 15" fill="none" xmlns="http://www.w3.org/2000/svg">
<path d="M0.00279594 6.3634L13.9783 6.3634C12.4454 4.75379 10.9517 3.18391 9.47193 1.63168C10.0504 1.03286 10.5423 0.525256 11.0495 -3.44633e-07C11.0872 0.0323684 11.1725 0.0956343 11.2437 0.172142C13.2405 2.2717 15.24 4.36831 17.2312 6.47375C17.9229 7.20499 17.9368 7.73613 17.2591 8.4556C15.2484 10.5905 13.2223 12.7121 11.2018 14.8381C11.1417 14.9014 11.0691 14.9514 11.009 15C10.5213 14.4791 10.0462 13.9701 9.55437 13.4448C11.0257 11.9073 12.5278 10.3389 14.0286 8.77193L13.9517 8.6248L-3.20431e-07 8.62479L0.00279594 6.3634Z" fill="#919191"/>
</svg>

<svg width="18" height="15" viewBox="0 0 18 15" fill="none" xmlns="http://www.w3.org/2000/svg"><path d="M.003 6.363h13.975c-1.533-1.61-3.026-3.18-4.506-4.731.578-.6 1.07-1.107 1.578-1.632.037.032.122.096.194.172 1.997 2.1 3.996 4.196 5.987 6.302.692.731.706 1.262.028 1.982-2.01 2.135-4.037 4.256-6.057 6.382-.06.063-.133.113-.193.162-.488-.52-.963-1.03-1.455-1.555l4.475-4.673-.077-.147H0l.003-2.262z" fill="#919191"/></svg>
